src/cyfwms-twn-client/public/img/home.svg

<svg width="150" height="150" overflow="hidden" version="1.1" xml:space="preserve" xmlns="http://www.w3.org/2000/svg"><defs><clipPath id="clip0"><rect x="1045" y="217" width="143" height="143"/></clipPath></defs><g transform="matrix(.72406 0 0 .79099 -734.95 -146.7)" clip-path="url(#clip0)" fill="#1b9ba5" stroke="#000" stroke-width="3.0211"><path d="m1154.5 221.47c2.32 8.178 8.05 14.962 15.72 18.62-7.67 3.657-13.4 10.441-15.72 18.619-2.32-8.177-8.05-14.961-15.73-18.619 7.68-3.659 13.41-10.442 15.73-18.62z"/><path d="m1175.4 252.75c1.21 4.253 4.19 7.78 8.18 9.682-3.99 1.902-6.97 5.43-8.18 9.683-1.2-4.253-4.18-7.781-8.17-9.683 3.99-1.902 6.97-5.429 8.17-9.682z"/><path d="m1065.7 237.85c1.77 6.216 6.12 11.371 11.95 14.151-5.83 2.78-10.18 7.936-11.95 14.151-1.76-6.215-6.11-11.371-11.95-14.151 5.84-2.78 10.19-7.936 11.95-14.151z"/><path d="m1116.5 234.86-62.53 59.55 6.7 5.658 55.83-53 55.83 53 6.7-5.658z"/><path d="m1071.8 297.84v44.216h35.73v-37.218h17.86v37.218h35.73v-44.216l-44.66-42.43z"/></g></svg>

<svg width="143" height="143" xmlns="http://www.w3.org/2000/svg" xmlns:xlink="http://www.w3.org/1999/xlink" xml:space="preserve" overflow="hidden"><defs><clipPath id="clip0"><rect x="1045" y="217" width="143" height="143"/></clipPath></defs><g clip-path="url(#clip0)" transform="translate(-1045 -217)"><path d="M1154.47 221.469 1154.47 221.469C1156.79 229.647 1162.52 236.431 1170.19 240.089L1170.19 240.089C1162.52 243.746 1156.79 250.53 1154.47 258.708L1154.47 258.708C1152.15 250.531 1146.42 243.747 1138.74 240.089L1138.74 240.089C1146.42 236.43 1152.15 229.647 1154.47 221.469Z" stroke="#000000" stroke-width="3.02113" fill="#1B9BA5"/><path d="M1175.35 252.75 1175.35 252.75C1176.56 257.003 1179.54 260.53 1183.53 262.432L1183.53 262.432C1179.54 264.334 1176.56 267.862 1175.35 272.115L1175.35 272.115C1174.15 267.862 1171.17 264.334 1167.18 262.432L1167.18 262.432C1171.17 260.53 1174.15 257.003 1175.35 252.75Z" stroke="#000000" stroke-width="3.02113" fill="#1B9BA5"/><path d="M1065.68 237.854 1065.68 237.854C1067.45 244.07 1071.8 249.225 1077.63 252.005L1077.63 252.005C1071.8 254.785 1067.45 259.941 1065.68 266.156L1065.68 266.156C1063.92 259.941 1059.57 254.785 1053.73 252.005L1053.73 252.005C1059.57 249.225 1063.92 244.069 1065.68 237.854Z" stroke="#000000" stroke-width="3.02113" fill="#1B9BA5"/><path d="M1116.46 234.865 1116.46 234.865 1053.93 294.415 1060.63 300.073 1116.46 247.073 1116.46 247.073 1172.29 300.073 1178.99 294.415 1116.46 234.865 1116.46 234.865Z" stroke="#000000" stroke-width="3.02113" fill="#1B9BA5"/><path d="M1071.8 297.84 1071.8 342.056 1107.53 342.056 1107.53 304.838 1125.39 304.838 1125.39 342.056 1161.12 342.056 1161.12 297.84 1116.46 255.41 1071.8 297.84 1071.8 297.84 1071.8 297.84Z" stroke="#000000" stroke-width="3.02113" fill="#1B9BA5"/></g></svg>
